X:226
T: Sommergewinn
N: A0272
O: Europa, Mitteleuropa, Deutschland
N: Werlin Hs. 1646 S. 1502.
R: Romanze, Ballade, Lied
M: 3/2
L: 1/2
K: C
c | c2d | c2A | G2G | E2
E | F2F | F2A | G2G | C2
G | G2F | E2D | C2
G | GAB | c2

